material/.icons/material/currency-gbp.svg

<svg xmlns="http://www.w3.org/2000/svg" viewBox="0 0 24 24"><path d="M6 21v-2c4-2 3.5-6 3.5-6H7v-2h2.5c-1-4.5.5-8 4.5-8 2 0 3 .5 3 .5v2c-6-2-6 2.5-5.5 5.5H16v2h-4.5s.5 4-2 6H18v2H6z"/></svg>

<?xml version="1.0" encoding="UTF-8"?><!DOCTYPE svg PUBLIC "-//W3C//DTD SVG 1.1//EN" "http://www.w3.org/Graphics/SVG/1.1/DTD/svg11.dtd"><svg xmlns="http://www.w3.org/2000/svg" xmlns:xlink="http://www.w3.org/1999/xlink" version="1.1" id="mdi-currency-gbp" width="24" height="24" viewBox="0 0 24 24"><path d="M6,21V19C10,17 9.5,13 9.5,13H7V11H9.5C8.5,6.5 10,3 14,3C16,3 17,3.5 17,3.5V5.5C11,3.5 11,8 11.5,11H16V13H11.5C11.5,13 12,17 9.5,19H18V21H6Z" /></svg>
